src/components/Icon/utils/svgsOptimized/arrows-out-simple.svg

<svg width="24" height="24" viewBox="0 0 24 24"  xmlns="http://www.w3.org/2000/svg">
<path d="M19 5.63636V9.45455C19 9.62332 18.933 9.78518 18.8136 9.90452C18.6943 10.0239 18.5324 10.0909 18.3636 10.0909C18.1949 10.0909 18.033 10.0239 17.9137 9.90452C17.7943 9.78518 17.7273 9.62332 17.7273 9.45455V7.17239L13.723 11.1775C13.6035 11.2969 13.4416 11.364 13.2727 11.364C13.1039 11.364 12.9419 11.2969 12.8225 11.1775C12.7031 11.0581 12.636 10.8961 12.636 10.7273C12.636 10.5584 12.7031 10.3965 12.8225 10.277L16.8276 6.27273H14.5455C14.3767 6.27273 14.2148 6.20568 14.0955 6.08634C13.9761 5.967 13.9091 5.80514 13.9091 5.63636C13.9091 5.46759 13.9761 5.30573 14.0955 5.18639C14.2148 5.06705 14.3767 5 14.5455 5H18.3636C18.5324 5 18.6943 5.06705 18.8136 5.18639C18.933 5.30573 19 5.46759 19 5.63636ZM10.277 12.8225L6.27273 16.8276V14.5455C6.27273 14.3767 6.20568 14.2148 6.08634 14.0955C5.967 13.9761 5.80514 13.9091 5.63636 13.9091C5.46759 13.9091 5.30573 13.9761 5.18639 14.0955C5.06705 14.2148 5 14.3767 5 14.5455V18.3636C5 18.5324 5.06705 18.6943 5.18639 18.8136C5.30573 18.933 5.46759 19 5.63636 19H9.45455C9.62332 19 9.78518 18.933 9.90452 18.8136C10.0239 18.6943 10.0909 18.5324 10.0909 18.3636C10.0909 18.1949 10.0239 18.033 9.90452 17.9137C9.78518 17.7943 9.62332 17.7273 9.45455 17.7273H7.17239L11.1775 13.723C11.2969 13.6035 11.364 13.4416 11.364 13.2727C11.364 13.1039 11.2969 12.9419 11.1775 12.8225C11.0581 12.7031 10.8961 12.636 10.7273 12.636C10.5584 12.636 10.3965 12.7031 10.277 12.8225Z" />
</svg>

<?xml version="1.0" encoding="utf-8"?><svg width="24" height="24" xmlns="http://www.w3.org/2000/svg" viewBox="0 0 24 24"><path d="M19 5.636v3.819a.636.636 0 1 1-1.273 0V7.172l-4.004 4.006a.637.637 0 0 1-.9-.901l4.005-4.004h-2.282a.636.636 0 1 1 0-1.273h3.818a.636.636 0 0 1 .636.636Zm-8.723 7.186-4.004 4.006v-2.282a.636.636 0 1 0-1.273 0v3.818a.636.636 0 0 0 .636.636h3.819a.636.636 0 1 0 0-1.273H7.172l4.006-4.004a.637.637 0 0 0-.901-.9Z"/></svg>
